!!!OTL: Die Gans (2-98) S. 286
!!!id: P0969
**kern
*clefG2
*k[]
*G:
{8d
8d
8d
=1
4g
4g
8b
8a
=2
4g
4d}
=3
{4d
=4
4b
4a
8b
8a
=5
2g}
=6
{4g
=7
4dd
4dd
8ee
8dd
=8
4cc
4a
8a}
=9
{8b
=10
4cc
4cc
8dd
8cc
=11
4b
4g}
=12
{4a
=13
4.b
8a
8b
8a
=14
4g
4d}
=15
{4d
=16
4.b
8a
8b
8a
=17
4g}
2r
=18
{4dd
4dd
8ee
8dd
=19
4cc
4a
8a}
=20
{8b
=21
4cc
4cc
8dd
8cc
=22
4b
4g}
=23
{4a
=24
4.b
8a
8b
8a
=25
4g
4d}
=26
{4d
=27
4.b
8a
8b
8a
=28
4g}
8r
==
*-
!!!minrhy: 8
!!!meters: 3/4 ]  ZZ[10
!!!cut: Die Gans (2-98) S. 286
!!!reg: Lothringen
!!!trd: PINCK, Louis: Verklingende Weisen, Bd 2, Metz 1928
!!!rhy1: XXX  X_X_XX  X_X_
!!!rhy2: X_  X_X_XX  X__
!!!key: P0969  08  G 3/4 ]  ZZ[10
!!!mod: SECHSTONSKALA DUR ?]  AMBITUS[9
!!!kad: -5121-5121-51
!!!akz: 11_31_54_43_31_31_54_43_31_31_
!!!fot: 'a__b__c__d__bw_b__ds'd__bw_b__
!!!for: 'a__aw_aw_av_b__bw_aw_av_b__bw_
!!!fok: '^__^a_^a_^d_\__^a_\__^d_\__^a_
!! PHRAS[VORWIEGEND AUFTAKTIG]
!!!fkt: ???
!! LOTH VKL
!! PR[52] 2K[0] 2G[6] 3K[3] 3G[3] 4A[9] 4Ü[0] 5A[0] 6K[0] 6G[0]
!! 7K[0] 7G[0] 8A[0] MEHR[0] SI[21] ABS[33] SR[6] SP[15]
!! ST[8] 2k[6] 2g[12] 3k[3] 3g[6] 4d[0] 4ü[0] 5d[0] 6k[0] 6g[0]
!! 7k[0] 7g[0] 8d[0] mehr[0] si[27] dm[-6] sr[18] sp[9]
!! 1F[26] 2F[65] 3F[6] 4F[0] LF[0] 2P[3] 3P[0] 4P[0] TRI[0] DF[4] AB[34]
!! TF[0] U3K[0] U3[0] U4[0] U4Ü[0] U5[6] U6K[0] U6[0] U7K[0] U7[3]
!! N1[24] N2K[0] N2[38] N3K[0] N3[18] N4[3] N4Ü[0] N5[9] N6K[0] N6[0]
!!!n7k: 0] N7[0] O1[0] O2K[0] O2[0] O3K[0] O3[0] HÖ[0
